public/images/tools-teletravail.svg

<svg width="219" height="180" viewBox="0 0 219 180" fill="none" xmlns="http://www.w3.org/2000/svg">
<g id="tools-teletravail">
<path id="Vector" d="M106.988 12.5747H111.679C169.08 12.5747 215.687 59.1812 215.687 116.582V141.173C215.687 155.784 203.829 167.642 189.218 167.642H29.4495C14.8383 167.642 2.98047 155.784 2.98047 141.173V116.582C2.98047 59.1812 49.587 12.5747 106.988 12.5747Z" fill="#E0F4F3"/>
<path id="Vector_2" d="M82.278 67.9081H57.1807C56.2255 67.9081 55.4512 68.6824 55.4512 69.6376V86.8727C55.4512 87.8279 56.2255 88.6022 57.1807 88.6022H82.278C83.2332 88.6022 84.0075 87.8279 84.0075 86.8727V69.6376C84.0075 68.6824 83.2332 67.9081 82.278 67.9081Z" fill="white"/>
<path id="Vector_3" d="M115.566 67.9081H90.4682C89.5131 67.9081 88.7388 68.6824 88.7388 69.6376V86.8727C88.7388 87.8279 89.5131 88.6022 90.4682 88.6022H115.566C116.521 88.6022 117.295 87.8279 117.295 86.8727V69.6376C117.295 68.6824 116.521 67.9081 115.566 67.9081Z" fill="white"/>
<path id="Vector_4" d="M82.278 42.781H57.1807C56.2255 42.781 55.4512 43.5553 55.4512 44.5105V61.7457C55.4512 62.7008 56.2255 63.4751 57.1807 63.4751H82.278C83.2332 63.4751 84.0075 62.7008 84.0075 61.7457V44.5105C84.0075 43.5553 83.2332 42.781 82.278 42.781Z" fill="white"/>
<path id="Vector_5" d="M115.566 42.781H90.4682C89.5131 42.781 88.7388 43.5553 88.7388 44.5105V61.7457C88.7388 62.7008 89.5131 63.4751 90.4682 63.4751H115.566C116.521 63.4751 117.295 62.7008 117.295 61.7457V44.5105C117.295 43.5553 116.521 42.781 115.566 42.781Z" fill="white"/>
<path id="Vector_6" d="M82.278 93.0453H57.1807C56.2255 93.0453 55.4512 93.8196 55.4512 94.7748V109.515C55.4512 110.47 56.2255 111.245 57.1807 111.245H82.278C83.2332 111.245 84.0075 110.47 84.0075 109.515V94.7748C84.0075 93.8196 83.2332 93.0453 82.278 93.0453Z" fill="white"/>
<path id="Vector_7" d="M115.566 93.0453H90.4682C89.5131 93.0453 88.7388 93.8196 88.7388 94.7748V109.515C88.7388 110.47 89.5131 111.245 90.4682 111.245H115.566C116.521 111.245 117.295 110.47 117.295 109.515V94.7748C117.295 93.8196 116.521 93.0453 115.566 93.0453Z" fill="white"/>
<path id="Vector_8" d="M195.778 149.273H23.9232C23.3765 149.273 22.9292 148.826 22.9292 148.279C22.9292 147.733 23.3765 147.285 23.9232 147.285H195.778C196.325 147.285 196.772 147.733 196.772 148.279C196.772 148.826 196.325 149.273 195.778 149.273Z" fill="#13706D"/>
<g id="Group">
<path id="Vector_9" d="M100.895 140.368H188.572C188.572 144.741 185.023 148.289 180.65 148.289H108.817C104.443 148.289 100.895 144.741 100.895 140.368Z" fill="white"/>
<path id="Vector_10" d="M180.65 149.273H108.817C103.907 149.273 99.9009 145.278 99.9009 140.357C99.9009 139.811 100.348 139.364 100.895 139.364H188.572C189.118 139.364 189.566 139.811 189.566 140.357C189.566 145.278 185.57 149.273 180.65 149.273ZM101.958 141.351C102.445 144.701 105.328 147.285 108.817 147.285H180.65C184.129 147.285 187.021 144.701 187.508 141.351H101.968H101.958Z" fill="#13706D"/>
</g>
<g id="Group_2">
<path id="Vector_11" d="M43.4047 138.181H40.3731C38.8822 138.181 37.6696 136.968 37.6696 135.477V129.633C37.6696 128.142 38.8822 126.929 40.3731 126.929H43.4047V122.934H40.2539C36.7551 122.934 33.9224 125.766 33.9224 129.265V135.666C33.9224 139.165 36.7551 141.998 40.2539 141.998H44.17" fill="white"/>
<path id="Vector_12" d="M44.1598 143.001H40.2436C36.1982 143.001 32.9082 139.711 32.9082 135.676V129.275C32.9082 125.229 36.1982 121.939 40.2436 121.939H43.3944C43.9411 121.939 44.3884 122.387 44.3884 122.933V126.929C44.3884 127.476 43.9411 127.923 43.3944 127.923H40.3629C39.4186 127.923 38.6533 128.688 38.6533 129.633V135.477C38.6533 136.421 39.4186 137.187 40.3629 137.187H43.3944C43.9411 137.187 44.3884 137.634 44.3884 138.181C44.3884 138.727 43.9411 139.175 43.3944 139.175H40.3629C38.3253 139.175 36.6653 137.515 36.6653 135.477V129.633C36.6653 127.595 38.3253 125.935 40.3629 125.935H42.4005V123.927H40.2436C37.3015 123.927 34.8961 126.323 34.8961 129.275V135.676C34.8961 138.618 37.2915 141.013 40.2436 141.013H44.1598C44.7064 141.013 45.1537 141.461 45.1537 142.007C45.1537 142.554 44.7064 143.001 44.1598 143.001Z" fill="#13706D"/>
</g>
<g id="Group_3">
<g id="Group_4">
<path id="Vector_13" d="M183.801 97.5182H118.836C116.54 97.5182 114.691 99.3769 114.691 101.663L112.703 140.358H185.968L187.955 101.663C187.955 99.3669 186.097 97.5182 183.811 97.5182H183.801Z" fill="white"/>
<path id="Vector_14" d="M185.957 141.361H112.693C112.425 141.361 112.156 141.252 111.977 141.053C111.789 140.854 111.689 140.586 111.709 140.318L113.697 101.623C113.697 98.84 116.003 96.5341 118.836 96.5341H183.801C186.633 96.5341 188.939 98.84 188.939 101.673L186.951 140.417C186.922 140.944 186.484 141.361 185.957 141.361ZM113.737 139.374H185.013L186.951 101.623C186.951 99.9334 185.54 98.522 183.801 98.522H118.836C117.096 98.522 115.685 99.9334 115.685 101.673L113.747 139.374H113.737Z" fill="#13706D"/>
</g>
<g id="Group_5">
<path id="Vector_15" d="M181.355 140.368L183.343 102.061H119.283L117.295 140.368H181.355Z" fill="#C4EAE7"/>
<path id="Vector_16" d="M181.355 141.361H117.285C117.017 141.361 116.748 141.252 116.559 141.053C116.371 140.855 116.271 140.586 116.291 140.318L118.279 102.011C118.309 101.484 118.746 101.067 119.273 101.067H183.343C183.612 101.067 183.88 101.176 184.069 101.375C184.258 101.573 184.357 101.842 184.337 102.11L182.349 140.417C182.319 140.944 181.882 141.361 181.355 141.361ZM118.339 139.374H180.411L182.3 103.054H120.227L118.339 139.374Z" fill="#13706D"/>
</g>
</g>
<g id="Group_6">
<path id="Vector_17" d="M142.303 140.368H131.419C131.419 142.554 133.189 144.324 135.375 144.324H138.337C140.524 144.324 142.293 142.554 142.293 140.368H142.303Z" fill="#C4EAE7"/>
<path id="Vector_18" d="M138.337 145.317H135.375C132.642 145.317 130.425 143.091 130.425 140.367C130.425 139.821 130.873 139.374 131.419 139.374H142.303C142.85 139.374 143.297 139.821 143.297 140.367C143.297 143.101 141.071 145.317 138.347 145.317H138.337ZM132.582 141.361C132.99 142.514 134.093 143.329 135.375 143.329H138.337C139.619 143.329 140.723 142.504 141.13 141.361H132.582Z" fill="#13706D"/>
</g>
<g id="Group_7">
<path id="Vector_19" d="M43.4045 121.691H69.7343V141.908C69.7343 145.427 66.8817 148.289 63.3531 148.289H49.7757C46.2571 148.289 43.3945 145.437 43.3945 141.908V121.691H43.4045Z" fill="white"/>
<path id="Vector_20" d="M63.353 149.273H49.7755C45.7103 149.273 42.4004 145.963 42.4004 141.898V121.681C42.4004 121.134 42.8477 120.687 43.3943 120.687H69.7242C70.2709 120.687 70.7182 121.134 70.7182 121.681V141.898C70.7182 145.963 67.4083 149.273 63.343 149.273H63.353ZM44.3982 122.675V141.898C44.3982 144.87 46.8135 147.285 49.7855 147.285H63.3629C66.3348 147.285 68.7501 144.87 68.7501 141.898V122.675H44.4082H44.3982Z" fill="#13706D"/>
</g>
<path id="Vector_21" d="M65.7389 133.827C65.6097 133.827 65.4805 133.807 65.3612 133.748C62.4489 132.545 60.6797 130.786 60.1131 128.51C59.0993 124.454 62.3992 120.389 62.5384 120.22C62.8862 119.793 63.5124 119.733 63.9398 120.091C64.3672 120.439 64.4269 121.065 64.079 121.492C64.0492 121.522 61.2661 124.961 62.0414 128.042C62.4489 129.663 63.8206 130.975 66.1166 131.919C66.6235 132.128 66.8621 132.714 66.6533 133.221C66.4943 133.609 66.1265 133.837 65.7389 133.837V133.827Z" fill="#13706D"/>
<g id="Group_8">
<path id="Vector_22" d="M67.836 130.478L65.1821 134.871L71.6627 138.091L74.1078 134.334L67.836 130.478Z" fill="#C4EAE7"/>
<path id="Vector_23" d="M71.6626 139.085C71.5135 139.085 71.3645 139.055 71.2253 138.986L64.7447 135.755C64.4962 135.636 64.3074 135.408 64.2378 135.139C64.1583 134.871 64.198 134.583 64.3372 134.344L66.991 129.961C67.1302 129.732 67.3489 129.573 67.6073 129.513C67.8657 129.454 68.1341 129.494 68.3627 129.633L74.6346 133.489C74.8632 133.628 75.0222 133.857 75.0818 134.115C75.1415 134.374 75.0818 134.652 74.9427 134.871L72.4976 138.628C72.3087 138.916 71.9906 139.085 71.6626 139.085ZM66.5935 134.453L71.3148 136.809L72.7262 134.642L68.1739 131.849L66.5935 134.453Z" fill="#13706D"/>
</g>
<g id="Group_9">
<g id="Group_10">
<path id="Vector_24" d="M157.054 73.8621C160.183 73.8621 162.719 71.3255 162.719 68.1965C162.719 65.0676 160.183 62.531 157.054 62.531C153.925 62.531 151.388 65.0676 151.388 68.1965C151.388 71.3255 153.925 73.8621 157.054 73.8621Z" fill="white"/>
<path id="Vector_25" d="M157.053 74.8559C156.159 74.8559 155.264 74.677 154.419 74.3093C151.05 72.8581 149.489 68.932 150.941 65.5625C152.392 62.1929 156.318 60.6324 159.687 62.0836C163.057 63.5348 164.617 67.4609 163.166 70.8304C162.46 72.4605 161.168 73.7228 159.508 74.3788C158.713 74.6969 157.878 74.8559 157.043 74.8559H157.053ZM157.053 63.5248C155.244 63.5248 153.525 64.5784 152.759 66.3477C151.736 68.7133 152.829 71.4665 155.195 72.4903C156.338 72.9873 157.61 73.0072 158.773 72.54C159.936 72.0828 160.84 71.1982 161.337 70.0551C162.361 67.6895 161.268 64.9363 158.902 63.9125C158.306 63.6541 157.68 63.5348 157.063 63.5348L157.053 63.5248Z" fill="#13706D"/>
</g>
<g id="Group_11">
<path id="Vector_26" d="M167.868 74.5578L145.017 64.6978L155.075 56.1498L167.182 61.378L167.868 74.5578Z" fill="#C4EAE7"/>
<path id="Vector_27" d="M167.867 75.5517C167.738 75.5517 167.599 75.5218 167.47 75.4721L144.619 65.6121C144.301 65.473 144.082 65.1847 144.032 64.8468C143.983 64.5088 144.112 64.1609 144.37 63.9423L154.429 55.3943C154.717 55.1458 155.115 55.0861 155.463 55.2352L167.569 60.4535C167.917 60.6026 168.146 60.9405 168.166 61.3182L168.852 74.4981C168.871 74.836 168.712 75.164 168.424 75.3628C168.255 75.4821 168.056 75.5417 167.858 75.5417L167.867 75.5517ZM146.875 64.4194L166.784 73.0071L166.208 62.0438L155.234 57.3126L146.865 64.4194H146.875Z" fill="#13706D"/>
</g>
<g id="Group_12">
<path id="Vector_28" d="M155.076 56.1498L160.006 48.4268C160.94 46.9756 162.53 46.3196 163.813 46.8762L167.908 48.6454C169.19 49.202 169.816 50.8023 169.389 52.4821L167.162 61.3681L155.076 56.1498Z" fill="#C4EAE7"/>
<path id="Vector_29" d="M167.162 62.3619C167.033 62.3619 166.894 62.3321 166.764 62.2824L154.678 57.0641C154.409 56.9449 154.211 56.7262 154.121 56.4479C154.032 56.1696 154.081 55.8714 154.231 55.6229L159.161 47.8999C160.353 46.0412 162.47 45.2261 164.2 45.9716L168.295 47.7408C170.024 48.4863 170.889 50.5836 170.352 52.7305L168.126 61.6165C168.056 61.9047 167.868 62.1333 167.599 62.2625C167.46 62.3321 167.311 62.3619 167.162 62.3619ZM156.537 55.7024L166.476 59.9963L168.424 52.2435C168.722 51.0507 168.335 49.9275 167.51 49.5598L163.415 47.7905C162.59 47.4327 161.506 47.9297 160.84 48.9634L156.537 55.7024Z" fill="#13706D"/>
</g>
<g id="Group_13">
<path id="Vector_30" d="M194.804 88.5824C194.535 88.5824 194.257 88.4731 194.058 88.2544L167.947 58.9725C167.579 58.565 167.619 57.9388 168.027 57.5711C168.434 57.2033 169.06 57.243 169.428 57.6506L195.539 86.9325C195.907 87.34 195.867 87.9662 195.46 88.3339C195.271 88.5029 195.032 88.5824 194.794 88.5824H194.804Z" fill="#13706D"/>
</g>
<g id="Group_14">
<path id="Vector_31" d="M187.945 105.251C187.747 105.251 187.548 105.191 187.379 105.072C186.932 104.754 186.822 104.138 187.13 103.691L194.953 92.4787C195.271 92.0314 195.887 91.9221 196.334 92.2302C196.782 92.5483 196.891 93.1645 196.583 93.6118L188.76 104.824C188.572 105.102 188.263 105.251 187.945 105.251Z" fill="#13706D"/>
</g>
<g id="Group_15">
<path id="Vector_32" d="M196.285 94.3286C198.147 94.3286 199.655 92.8198 199.655 90.9586C199.655 89.0974 198.147 87.5886 196.285 87.5886C194.424 87.5886 192.916 89.0974 192.916 90.9586C192.916 92.8198 194.424 94.3286 196.285 94.3286Z" fill="#C4EAE7"/>
<path id="Vector_33" d="M196.285 95.3214C193.879 95.3214 191.921 93.3633 191.921 90.9579C191.921 88.5526 193.879 86.5945 196.285 86.5945C198.69 86.5945 200.648 88.5526 200.648 90.9579C200.648 93.3633 198.69 95.3214 196.285 95.3214ZM196.285 88.5824C194.973 88.5824 193.909 89.6459 193.909 90.9579C193.909 92.27 194.973 93.3335 196.285 93.3335C197.597 93.3335 198.66 92.27 198.66 90.9579C198.66 89.6459 197.597 88.5824 196.285 88.5824Z" fill="#13706D"/>
</g>
</g>
<path id="Vector_34" d="M58.8209 116.731C58.6023 116.731 58.3736 116.652 58.1848 116.503C57.7673 116.155 57.7077 115.528 58.0556 115.101C58.2743 114.833 63.3037 108.581 57.1014 102.557C54.9544 100.48 53.9505 98.1939 54.1096 95.7687C54.3978 91.2263 58.7116 87.9463 58.8905 87.8071C59.3278 87.4791 59.954 87.5686 60.282 88.0059C60.61 88.4432 60.5206 89.0694 60.0832 89.3974C60.0435 89.4272 56.3162 92.2799 56.0876 95.8979C55.9782 97.7168 56.7833 99.4761 58.483 101.126C66.0172 108.442 59.6459 116.284 59.5763 116.363C59.3775 116.602 59.0992 116.721 58.811 116.721L58.8209 116.731Z" fill="#13706D"/>
<path id="Vector_35" d="M49.7757 116.731C49.5571 116.731 49.3285 116.652 49.1396 116.503C48.7222 116.155 48.6625 115.529 49.0104 115.101C49.2291 114.833 54.2585 108.581 48.0562 102.557C45.7502 100.321 44.7563 97.8461 45.1141 95.2221C45.1936 94.6754 45.6906 94.2977 46.2373 94.3673C46.7839 94.4368 47.1616 94.9438 47.0921 95.4904C46.8237 97.4585 47.6189 99.3569 49.4477 101.126C56.9819 108.442 50.6107 116.284 50.5411 116.363C50.3423 116.602 50.064 116.721 49.7757 116.721V116.731Z" fill="#13706D"/>
<path id="Vector_36" d="M123.348 107.358L122.135 134.255C122.106 134.861 122.642 135.338 123.239 135.239L127.065 134.602C146.199 131.432 163.544 121.492 175.958 106.613C176.306 106.136 175.59 106.136 175.59 106.136H124.63C123.944 106.136 123.378 106.672 123.348 107.368V107.358Z" fill="#E0F4F3"/>
<path id="Vector_37" d="M52.38 136.173L49.3285 133.122C48.4042 132.197 48.4042 130.706 49.3285 129.792C50.2529 128.867 51.7438 128.867 52.6583 129.792L53.5926 130.726L54.4673 129.851C55.3917 128.927 56.8826 128.927 57.797 129.851L58.0157 130.07C58.9401 130.994 58.9401 132.485 58.0157 133.4L54.9046 136.511C54.2884 137.127 53.2944 137.117 52.6881 136.491L52.38 136.173Z" fill="#C4EAE7"/>
</g>
</svg>

<svg xmlns="http://www.w3.org/2000/svg" width="219" height="180" fill="none"><path fill="#E0F4F3" d="M106.988 12.575h4.691c57.401 0 104.008 46.606 104.008 104.007v24.591c0 14.611-11.858 26.469-26.469 26.469H29.45c-14.612 0-26.47-11.858-26.47-26.469v-24.591c0-57.4 46.607-104.007 104.008-104.007"/><path fill="#fff" d="M82.278 67.908H57.181a1.73 1.73 0 0 0-1.73 1.73v17.235c0 .955.774 1.73 1.73 1.73h25.097a1.73 1.73 0 0 0 1.73-1.73V69.638a1.73 1.73 0 0 0-1.73-1.73m33.288 0H90.468a1.73 1.73 0 0 0-1.73 1.73v17.235c0 .955.775 1.73 1.73 1.73h25.098a1.73 1.73 0 0 0 1.729-1.73V69.638a1.73 1.73 0 0 0-1.729-1.73M82.278 42.781H57.181a1.73 1.73 0 0 0-1.73 1.73v17.235c0 .955.774 1.73 1.73 1.73h25.097a1.73 1.73 0 0 0 1.73-1.73V44.51a1.73 1.73 0 0 0-1.73-1.73m33.288.001H90.468a1.73 1.73 0 0 0-1.73 1.73v17.235c0 .955.775 1.73 1.73 1.73h25.098a1.73 1.73 0 0 0 1.729-1.73V44.51a1.73 1.73 0 0 0-1.729-1.73M82.278 93.045H57.181a1.73 1.73 0 0 0-1.73 1.73v14.74c0 .955.774 1.73 1.73 1.73h25.097a1.73 1.73 0 0 0 1.73-1.73v-14.74a1.73 1.73 0 0 0-1.73-1.73m33.288 0H90.468a1.73 1.73 0 0 0-1.73 1.73v14.74c0 .955.775 1.73 1.73 1.73h25.098a1.73 1.73 0 0 0 1.729-1.73v-14.74a1.73 1.73 0 0 0-1.729-1.73"/><path fill="#13706D" d="M195.778 149.273H23.923a.997.997 0 0 1-.994-.994c0-.546.448-.994.994-.994h171.855c.547 0 .994.448.994.994a.997.997 0 0 1-.994.994"/><path fill="#fff" d="M100.895 140.368h87.677a7.924 7.924 0 0 1-7.922 7.921h-71.833a7.923 7.923 0 0 1-7.922-7.921"/><path fill="#13706D" d="M180.65 149.273h-71.833c-4.91 0-8.916-3.995-8.916-8.916 0-.546.447-.993.994-.993h87.677c.546 0 .994.447.994.993 0 4.921-3.996 8.916-8.916 8.916m-78.692-7.922c.487 3.35 3.37 5.934 6.859 5.934h71.833c3.479 0 6.371-2.584 6.858-5.934z"/><path fill="#fff" d="M43.405 138.181h-3.032a2.707 2.707 0 0 1-2.703-2.704v-5.844a2.707 2.707 0 0 1 2.703-2.704h3.032v-3.995h-3.151a6.33 6.33 0 0 0-6.332 6.331v6.401a6.33 6.33 0 0 0 6.332 6.332h3.916"/><path fill="#13706D" d="M44.16 143.001h-3.916c-4.046 0-7.336-3.29-7.336-7.325v-6.401a7.343 7.343 0 0 1 7.336-7.336h3.15c.547 0 .994.448.994.994v3.996a.997.997 0 0 1-.994.994h-3.031a1.71 1.71 0 0 0-1.71 1.71v5.844c0 .944.766 1.71 1.71 1.71h3.031c.547 0 .994.447.994.994a.997.997 0 0 1-.994.994h-3.031a3.703 3.703 0 0 1-3.698-3.698v-5.844a3.703 3.703 0 0 1 3.698-3.698H42.4v-2.008h-2.157a5.356 5.356 0 0 0-5.348 5.348v6.401c0 2.942 2.395 5.337 5.348 5.337h3.916c.546 0 .994.448.994.994a.997.997 0 0 1-.994.994"/><path fill="#fff" d="M183.801 97.518h-64.965a4.14 4.14 0 0 0-4.145 4.145l-1.988 38.695h73.265l1.987-38.695a4.14 4.14 0 0 0-4.144-4.145z"/><path fill="#13706D" d="M185.957 141.361h-73.264a.97.97 0 0 1-.716-.308.97.97 0 0 1-.268-.735l1.988-38.695c0-2.783 2.306-5.089 5.139-5.089h64.965a5.145 5.145 0 0 1 5.138 5.139l-1.988 38.744a1 1 0 0 1-.994.944m-72.22-1.987h71.276l1.938-37.751c0-1.69-1.411-3.101-3.15-3.101h-64.965a3.15 3.15 0 0 0-3.151 3.151l-1.938 37.701z"/><path fill="#C4EAE7" d="m181.355 140.368 1.988-38.307h-64.06l-1.988 38.307z"/><path fill="#13706D" d="M181.355 141.361h-64.07c-.268 0-.537-.109-.726-.308a.97.97 0 0 1-.268-.735l1.988-38.307a1 1 0 0 1 .994-.944h64.07c.269 0 .537.109.726.308a.97.97 0 0 1 .268.735l-1.988 38.307a1 1 0 0 1-.994.944m-63.016-1.987h62.072l1.889-36.32h-62.073z"/><path fill="#C4EAE7" d="M142.303 140.368h-10.884a3.955 3.955 0 0 0 3.956 3.956h2.962a3.954 3.954 0 0 0 3.956-3.956z"/><path fill="#13706D" d="M138.337 145.317h-2.962a4.957 4.957 0 0 1-4.95-4.95c0-.546.448-.993.994-.993h10.884c.547 0 .994.447.994.993a4.956 4.956 0 0 1-4.95 4.95zm-5.755-3.956a2.96 2.96 0 0 0 2.793 1.968h2.962a2.975 2.975 0 0 0 2.793-1.968z"/><path fill="#fff" d="M43.405 121.691h26.33v20.217a6.38 6.38 0 0 1-6.382 6.381H49.776a6.38 6.38 0 0 1-6.382-6.381v-20.217z"/><path fill="#13706D" d="M63.353 149.273H49.776c-4.066 0-7.376-3.31-7.376-7.375v-20.217c0-.547.448-.994.994-.994h26.33c.547 0 .994.447.994.994v20.217c0 4.065-3.31 7.375-7.375 7.375zm-18.955-26.598v19.223a5.39 5.39 0 0 0 5.387 5.387h13.578a5.39 5.39 0 0 0 5.387-5.387v-19.223z"/><path fill="#13706D" d="M65.739 133.827a.84.84 0 0 1-.378-.079c-2.912-1.203-4.681-2.962-5.248-5.238-1.014-4.056 2.286-8.121 2.425-8.29a.985.985 0 0 1 1.402-.129.994.994 0 0 1 .139 1.401c-.03.03-2.813 3.469-2.038 6.55.408 1.621 1.78 2.933 4.076 3.877a.998.998 0 0 1-.378 1.918z"/><path fill="#C4EAE7" d="m67.836 130.478-2.654 4.393 6.48 3.22 2.446-3.757z"/><path fill="#13706D" d="M71.663 139.085a1 1 0 0 1-.438-.099l-6.48-3.231a.95.95 0 0 1-.507-.616c-.08-.268-.04-.556.1-.795l2.653-4.383a.98.98 0 0 1 .616-.448c.259-.059.527-.019.756.12l6.272 3.856a1 1 0 0 1 .447.626c.06.259 0 .537-.14.756l-2.444 3.757a1 1 0 0 1-.835.457m-5.07-4.632 4.722 2.356 1.411-2.167-4.552-2.793z"/><path fill="#fff" d="M157.054 73.862a5.665 5.665 0 1 0 0-11.33 5.665 5.665 0 0 0 0 11.33"/><path fill="#13706D" d="M157.053 74.856a6.6 6.6 0 0 1-2.634-.547c-3.369-1.45-4.93-5.377-3.478-8.746s5.377-4.93 8.746-3.48c3.37 1.452 4.93 5.378 3.479 8.747a6.6 6.6 0 0 1-3.658 3.549 6.6 6.6 0 0 1-2.465.477zm0-11.331a4.675 4.675 0 0 0-1.858 8.965 4.6 4.6 0 0 0 3.578.05 4.62 4.62 0 0 0 2.564-2.485 4.675 4.675 0 0 0-2.435-6.143 4.6 4.6 0 0 0-1.839-.377z"/><path fill="#C4EAE7" d="m167.868 74.558-22.851-9.86 10.058-8.548 12.107 5.228z"/><path fill="#13706D" d="M167.867 75.552a1.1 1.1 0 0 1-.397-.08l-22.851-9.86a.99.99 0 0 1-.587-.765c-.049-.338.08-.686.338-.905l10.059-8.548a.98.98 0 0 1 1.034-.159l12.106 5.218c.348.15.577.487.597.865l.686 13.18a.98.98 0 0 1-.428.865 1 1 0 0 1-.566.179zm-20.992-11.133 19.909 8.588-.576-10.963-10.974-4.731-8.369 7.106z"/><path fill="#C4EAE7" d="m155.076 56.15 4.93-7.723c.934-1.451 2.524-2.107 3.807-1.55l4.095 1.768c1.282.557 1.908 2.157 1.481 3.837l-2.227 8.886z"/><path fill="#13706D" d="M167.162 62.362a1.1 1.1 0 0 1-.398-.08l-12.086-5.218a1 1 0 0 1-.557-.616 1 1 0 0 1 .11-.825l4.93-7.723c1.192-1.859 3.309-2.674 5.039-1.928l4.095 1.769c1.729.745 2.594 2.843 2.057 4.99l-2.226 8.886a.96.96 0 0 1-.527.646 1 1 0 0 1-.437.099m-10.625-6.66 9.939 4.294 1.948-7.753c.298-1.192-.089-2.315-.914-2.683l-4.095-1.77c-.825-.357-1.909.14-2.575 1.173z"/><path fill="#13706D" d="M194.804 88.582a1 1 0 0 1-.746-.328l-26.111-29.282a.99.99 0 0 1 .08-1.4.99.99 0 0 1 1.401.079l26.111 29.282a.99.99 0 0 1-.079 1.4 1 1 0 0 1-.666.25zm-6.859 16.669a1 1 0 0 1-.566-.179 1 1 0 0 1-.249-1.381l7.823-11.212a1 1 0 0 1 1.381-.249 1 1 0 0 1 .249 1.382l-7.823 11.212a.98.98 0 0 1-.815.427"/><path fill="#C4EAE7" d="M196.285 94.329a3.37 3.37 0 1 0 .001-6.74 3.37 3.37 0 0 0-.001 6.74"/><path fill="#13706D" d="M196.285 95.321a4.37 4.37 0 0 1-4.364-4.363 4.37 4.37 0 0 1 4.364-4.364 4.37 4.37 0 0 1 4.363 4.364 4.37 4.37 0 0 1-4.363 4.363m0-6.739a2.376 2.376 0 1 0 0 4.752 2.376 2.376 0 0 0 0-4.752M58.82 116.731a1.04 1.04 0 0 1-.635-.228 1.003 1.003 0 0 1-.13-1.402c.22-.268 5.249-6.52-.954-12.544-2.147-2.077-3.15-4.363-2.991-6.788.288-4.543 4.602-7.823 4.78-7.962a.997.997 0 0 1 1.392.199.997.997 0 0 1-.199 1.391c-.04.03-3.767 2.883-3.995 6.5-.11 1.82.695 3.58 2.395 5.229 7.534 7.316 1.163 15.158 1.093 15.237a.98.98 0 0 1-.765.358zm-9.044 0a1.04 1.04 0 0 1-.636-.228 1.003 1.003 0 0 1-.13-1.402c.22-.268 5.249-6.52-.954-12.544-2.306-2.236-3.3-4.71-2.942-7.335.08-.547.577-.924 1.123-.855.547.07.925.577.855 1.123-.268 1.969.527 3.867 2.356 5.636 7.534 7.316 1.163 15.158 1.093 15.237a.98.98 0 0 1-.765.358z"/><path fill="#E0F4F3" d="m123.348 107.358-1.213 26.897a.95.95 0 0 0 1.104.984l3.826-.637a80.9 80.9 0 0 0 48.893-27.989c.348-.477-.368-.477-.368-.477h-50.96c-.686 0-1.252.536-1.282 1.232z"/><path fill="#C4EAE7" d="m52.38 136.173-3.052-3.051a2.346 2.346 0 0 1 0-3.33 2.345 2.345 0 0 1 3.33 0l.935.934.874-.875a2.346 2.346 0 0 1 3.33 0l.219.219a2.346 2.346 0 0 1 0 3.33l-3.111 3.111a1.55 1.55 0 0 1-2.217-.02z"/></svg>
